build/img/syringe.svg

<svg width="32" height="34" viewBox="0 0 32 34" fill="none" xmlns="http://www.w3.org/2000/svg">
<path d="M31.6888 10.3598L21.786 0.317843C21.3681 -0.105948 20.6777 -0.105948 20.2416 0.317843C19.8237 0.741634 19.8237 1.44181 20.2416 1.88403L21.677 3.33966L18.3519 6.69313L16.9164 5.2375L15.4447 3.74502C15.0267 3.32123 14.3363 3.32123 13.9002 3.74502C13.4823 4.16881 13.4823 4.86899 13.9002 5.3112L15.372 6.80368L1.32642 21.0652L3.48868 27.3299L0 30.8861L0.0181702 34L5.05131 28.8961L11.2292 31.0887L25.2747 16.8457L26.7465 18.3382C26.9646 18.5593 27.2371 18.6698 27.5097 18.6698C27.7822 18.6698 28.0729 18.5593 28.2728 18.3382C28.6907 17.9144 28.6907 17.2142 28.2728 16.772L25.3837 13.8423L28.7089 10.4704L30.1443 11.926C30.3624 12.1471 30.6349 12.2577 30.9075 12.2577C31.18 12.2577 31.4708 12.1471 31.6706 11.926C32.1067 11.4838 32.1067 10.7836 31.6888 10.3598ZM23.7484 15.2979L10.6659 28.5644L5.61459 26.7771L3.85208 21.6548L5.83263 19.6464L7.4316 21.2678C7.54063 21.3784 7.68599 21.4337 7.81318 21.4337C7.95854 21.4337 8.08573 21.3784 8.19475 21.2678C8.41279 21.0467 8.41279 20.6967 8.19475 20.494L6.59578 18.8725L8.70352 16.7351L10.3025 18.3566C10.4115 18.4671 10.5569 18.5224 10.6841 18.5224C10.8294 18.5224 10.9566 18.4671 11.0656 18.3566C11.2837 18.1355 11.2837 17.7854 11.0656 17.5827L9.46666 15.9613L11.5744 13.8054L13.1734 15.4269C13.2824 15.5375 13.4278 15.5927 13.555 15.5927C13.7003 15.5927 13.8275 15.5375 13.9365 15.4269C14.1546 15.2058 14.1546 14.8557 13.9365 14.653L12.3376 13.0316L14.4453 10.8942L16.0443 12.5156C16.1533 12.6262 16.2987 12.6815 16.4258 12.6815C16.553 12.6815 16.6984 12.6262 16.8074 12.5156C17.0255 12.2945 17.0255 11.9445 16.8074 11.7418L15.2084 10.1203L16.9164 8.38829L19.2059 10.7099L23.7484 15.2979ZM24.6206 13.0684L23.276 11.7049L19.1332 7.50386L22.4583 4.13196L27.9639 9.71494L24.6206 13.0684Z" fill="white"/>
</svg>

<svg width="32" height="34" fill="none" xmlns="http://www.w3.org/2000/svg"><path d="M31.689 10.36L21.786.318a1.097 1.097 0 00-1.544 0c-.418.424-.418 1.124 0 1.566l1.435 1.456-3.325 3.353-1.436-1.455-1.471-1.493a1.097 1.097 0 00-1.545 0c-.418.424-.418 1.124 0 1.566l1.472 1.493L1.326 21.065 3.49 27.33 0 30.886.018 34l5.033-5.104 6.178 2.193 14.046-14.243 1.472 1.492c.218.221.49.332.763.332.272 0 .563-.11.763-.332.418-.424.418-1.124 0-1.566l-2.89-2.93 3.326-3.372 1.435 1.456c.218.221.49.332.764.332.272 0 .563-.11.763-.332a1.118 1.118 0 00.018-1.566zm-7.94 4.938L10.665 28.564l-5.051-1.787-1.763-5.122 1.98-2.009 1.6 1.622a.52.52 0 00.763 0 .54.54 0 000-.774l-1.6-1.622 2.109-2.137 1.598 1.622a.52.52 0 00.763 0 .54.54 0 000-.774L9.468 15.96l2.107-2.156 1.6 1.622a.52.52 0 00.763 0 .54.54 0 000-.774l-1.6-1.621 2.108-2.138 1.6 1.622a.55.55 0 00.38.165.55.55 0 00.382-.165.54.54 0 000-.774l-1.599-1.622 1.708-1.732 2.29 2.322 4.542 4.588zm.872-2.23l-1.345-1.363-4.143-4.201 3.325-3.372 5.506 5.583-3.343 3.353z" fill="#fff"/></svg>
